humanity-icon-theme/Humanity/apps/32/gksu-root-terminal.svg

<?xml version="1.0" encoding="UTF-8" standalone="no"?>
<!-- Created with Inkscape (http://www.inkscape.org/) -->

<svg
   xmlns:dc="http://purl.org/dc/elements/1.1/"
   xmlns:cc="http://creativecommons.org/ns#"
   xmlns:rdf="http://www.w3.org/1999/02/22-rdf-syntax-ns#"
   xmlns:svg="http://www.w3.org/2000/svg"
   xmlns="http://www.w3.org/2000/svg"
   xmlns:xlink="http://www.w3.org/1999/xlink"
   version="1.1"
   width="32"
   height="32"
   id="svg3006">
  <defs
     id="defs3008">
    <linearGradient
       x1="16.142857"
       y1="4.000001"
       x2="16.142857"
       y2="44.000256"
       id="linearGradient2880"
       xlink:href="#linearGradient2223-4-6-9-7"
       gradientUnits="userSpaceOnUse"
       gradientTransform="matrix(0.53849257,0,0,0.41028656,3.0761741,7.6531205)" />
    <linearGradient
       id="linearGradient2223-4-6-9-7">
      <stop
         id="stop2225-6-4-7-2"
         style="stop-color:#ffffff;stop-opacity:1"
         offset="0" />
      <stop
         id="stop2229-2-5-5-8"
         style="stop-color:#ffffff;stop-opacity:0"
         offset="1" />
    </linearGradient>
    <linearGradient
       x1="16.626165"
       y1="15.298182"
       x2="20.054544"
       y2="24.627615"
       id="linearGradient2883"
       xlink:href="#linearGradient8265-821-176-38-919-66-249-7-7-8-6"
       gradientUnits="userSpaceOnUse"
       gradientTransform="matrix(0.6095238,0,0,0.64312588,1.3714318,2.1613411)" />
    <linearGradient
       id="linearGradient8265-821-176-38-919-66-249-7-7-8-6">
      <stop
         id="stop2687-1-9-0-2"
         style="stop-color:#ffffff;stop-opacity:1"
         offset="0" />
      <stop
         id="stop2689-5-4-3-1"
         style="stop-color:#ffffff;stop-opacity:0"
         offset="1" />
    </linearGradient>
    <linearGradient
       x1="16"
       y1="27.045361"
       x2="16"
       y2="16"
       id="linearGradient2886"
       xlink:href="#linearGradient3680-6"
       gradientUnits="userSpaceOnUse"
       gradientTransform="matrix(0.62857141,0,0,0.63636358,0.21428596,0.8181793)" />
    <linearGradient
       id="linearGradient3680-6">
      <stop
         id="stop3682-4"
         style="stop-color:#dcdcdc;stop-opacity:1"
         offset="0" />
      <stop
         id="stop3684-8"
         style="stop-color:#ffffff;stop-opacity:1"
         offset="1" />
    </linearGradient>
    <linearGradient
       x1="20"
       y1="28"
       x2="20"
       y2="26"
       id="linearGradient2890"
       xlink:href="#linearGradient3680-6"
       gradientUnits="userSpaceOnUse"
       gradientTransform="matrix(0.62499993,0,0,0.50000013,0.74999902,4.9999959)" />
    <linearGradient
       x1="12.578789"
       y1="2.9165411"
       x2="12.213111"
       y2="47.278698"
       id="linearGradient2894"
       xlink:href="#linearGradient2238-2-3-3-1"
       gradientUnits="userSpaceOnUse"
       gradientTransform="matrix(0.59939498,0,0,0.56349564,1.6137881,4.5429701)" />
    <linearGradient
       id="linearGradient2238-2-3-3-1">
      <stop
         id="stop2240-1-6-7-0"
         style="stop-color:#ffffff;stop-opacity:1"
         offset="0" />
      <stop
         id="stop2242-7-3-7-2"
         style="stop-color:#ffffff;stop-opacity:0"
         offset="1" />
    </linearGradient>
    <linearGradient
       x1="23.070969"
       y1="36.046932"
       x2="23.070969"
       y2="33.296398"
       id="linearGradient2897"
       xlink:href="#linearGradient2223-4-6-9"
       gradientUnits="userSpaceOnUse"
       gradientTransform="matrix(0.63527187,0,0,0.65254033,0.75718585,4.4760421)" />
    <linearGradient
       id="linearGradient2223-4-6-9">
      <stop
         id="stop2225-6-4-7"
         style="stop-color:#ffffff;stop-opacity:1"
         offset="0" />
      <stop
         id="stop2229-2-5-5"
         style="stop-color:#ffffff;stop-opacity:0"
         offset="1" />
    </linearGradient>
    <radialGradient
       cx="7.4956832"
       cy="8.4497671"
       r="19.99999"
       fx="7.4956832"
       fy="8.4497671"
       id="radialGradient2900"
       xlink:href="#linearGradient3242-593-605-251-305"
       gradientUnits="userSpaceOnUse"
       gradientTransform="matrix(0,1.0615086,-1.8154563,-4.479145e-8,31.340243,0.8114898)" />
    <linearGradient
       x1="6.3006539"
       y1="43.469128"
       x2="6.3006539"
       y2="3.7572238"
       id="linearGradient2902"
       xlink:href="#linearGradient3332-412-419-652-471"
       gradientUnits="userSpaceOnUse"
       gradientTransform="matrix(0.58977758,0,0,0.46157243,1.8453389,6.4222629)" />
    <linearGradient
       x1="23.999996"
       y1="7.9600015"
       x2="23.999996"
       y2="43.865456"
       id="linearGradient2905"
       xlink:href="#linearGradient3994-617-9-9"
       gradientUnits="userSpaceOnUse"
       gradientTransform="matrix(0.64442758,0,0,0.64862838,0.53373557,0.6356599)" />
    <linearGradient
       id="linearGradient3994-617-9-9">
      <stop
         id="stop4324-9-7"
         style="stop-color:#f0f0f0;stop-opacity:1"
         offset="0" />
      <stop
         id="stop2860-4-4"
         style="stop-color:#d7d7d8;stop-opacity:1"
         offset="0.08552461" />
      <stop
         id="stop2862-5-9"
         style="stop-color:#b2b2b3;stop-opacity:1"
         offset="0.92166406" />
      <stop
         id="stop4326-1-1"
         style="stop-color:#979798;stop-opacity:1"
         offset="1" />
    </linearGradient>
    <linearGradient
       x1="10.014208"
       y1="44.960102"
       x2="10.014208"
       y2="2.8764627"
       id="linearGradient2907"
       xlink:href="#linearGradient4008-764-3-0"
       gradientUnits="userSpaceOnUse"
       gradientTransform="matrix(0.61700828,0,0,0.58601673,1.1918121,3.4284144)" />
    <linearGradient
       id="linearGradient4008-764-3-0">
      <stop
         id="stop4334-7-6"
         style="stop-color:#595959;stop-opacity:1"
         offset="0" />
      <stop
         id="stop4336-8-0"
         style="stop-color:#b3b3b3;stop-opacity:1"
         offset="1" />
    </linearGradient>
    <radialGradient
       cx="605.71429"
       cy="486.64789"
       r="117.14286"
       fx="605.71429"
       fy="486.64789"
       id="radialGradient2910"
       xlink:href="#linearGradient5060-6-6-5"
       gradientUnits="userSpaceOnUse"
       gradientTransform="matrix(-0.04372487,0,0,0.01647059,31.794815,21.294422)" />
    <linearGradient
       id="linearGradient5060-6-6-5">
      <stop
         id="stop5062-3-0-3"
         style="stop-color:#000000;stop-opacity:1"
         offset="0" />
      <stop
         id="stop5064-1-4-9"
         style="stop-color:#000000;stop-opacity:0"
         offset="1" />
    </linearGradient>
    <radialGradient
       cx="605.71429"
       cy="486.64789"
       r="117.14286"
       fx="605.71429"
       fy="486.64789"
       id="radialGradient2913"
       xlink:href="#linearGradient5060-6-6-5"
       gradientUnits="userSpaceOnUse"
       gradientTransform="matrix(0.04372487,0,0,0.01647059,0.20519206,21.294422)" />
    <linearGradient
       id="linearGradient5048-7-7-5">
      <stop
         id="stop5050-5-6-4"
         style="stop-color:#000000;stop-opacity:0"
         offset="0" />
      <stop
         id="stop5056-9-0-1"
         style="stop-color:#000000;stop-opacity:1"
         offset="0.5" />
      <stop
         id="stop5052-6-9-5"
         style="stop-color:#000000;stop-opacity:0"
         offset="1" />
    </linearGradient>
    <linearGradient
       x1="302.85715"
       y1="366.64789"
       x2="302.85715"
       y2="609.50507"
       id="linearGradient3004"
       xlink:href="#linearGradient5048-7-7-5"
       gradientUnits="userSpaceOnUse"
       gradientTransform="matrix(0.04372487,0,0,0.01647059,0.19658512,21.294422)" />
    <linearGradient
       id="linearGradient3242-593-605-251-305">
      <stop
         id="stop2749"
         style="stop-color:#d78ec1;stop-opacity:1"
         offset="0" />
      <stop
         id="stop2751"
         style="stop-color:#c564be;stop-opacity:1"
         offset="0.26238" />
      <stop
         id="stop2829"
         style="stop-color:#9d3ea4;stop-opacity:1"
         offset="0.66093999" />
      <stop
         id="stop2831"
         style="stop-color:#5e2c73;stop-opacity:1"
         offset="1" />
    </linearGradient>
    <linearGradient
       id="linearGradient3332-412-419-652-471">
      <stop
         id="stop2759"
         style="stop-color:#650d5c;stop-opacity:1"
         offset="0" />
      <stop
         id="stop2761"
         style="stop-color:#ad53a5;stop-opacity:1"
         offset="1" />
    </linearGradient>
  </defs>
  <metadata
     id="metadata3011">
    <rdf:RDF>
      <cc:Work
         rdf:about="">
        <dc:format>image/svg+xml</dc:format>
        <dc:type
           rdf:resource="http://purl.org/dc/dcmitype/StillImage" />
        <dc:title></dc:title>
      </cc:Work>
    </rdf:RDF>
  </metadata>
  <g
     id="layer1">
    <rect
       width="21.11286"
       height="4.0000005"
       x="5.4435763"
       y="27.333334"
       id="rect2512-9-5"
       style="opacity:0.40206185;fill:url(#linearGradient3004);fill-opacity:1;fill-rule:nonzero;stroke:none;stroke-width:1;marker:none;visibility:visible;display:inline;overflow:visible" />
    <path
       d="m 26.556432,27.333467 c 0,0 0,3.999779 0,3.999779 C 28.808154,31.340773 32,30.437099 32,29.333099 c 0,-1.104 -2.512752,-1.999632 -5.443568,-1.999632 z"
       id="path2514-7-4"
       style="opacity:0.40206185;fill:url(#radialGradient2913);fill-opacity:1;fill-rule:nonzero;stroke:none;stroke-width:1;marker:none;visibility:visible;display:inline;overflow:visible" />
    <path
       d="m 5.4435678,27.333467 c 0,0 0,3.999779 0,3.999779 C 3.1918461,31.340773 0,30.437099 0,29.333099 c 0,-1.104 2.5127521,-1.999632 5.4435678,-1.999632 z"
       id="path2516-8-9"
       style="opacity:0.40206185;fill:url(#radialGradient2910);fill-opacity:1;fill-rule:nonzero;stroke:none;stroke-width:1;marker:none;visibility:visible;display:inline;overflow:visible" />
    <rect
       width="28.997868"
       height="23.997868"
       rx="0.99928862"
       ry="0.99928856"
       x="1.5010664"
       y="5.5010653"
       id="rect2551-5-8"
       style="fill:url(#linearGradient2905);fill-opacity:1;fill-rule:evenodd;stroke:url(#linearGradient2907);stroke-width:1.00213289;stroke-linecap:round;stroke-linejoin:round;stroke-miterlimit:4;stroke-opacity:1;stroke-dasharray:none;stroke-dashoffset:0" />
    <rect
       width="23"
       height="18"
       rx="0"
       ry="0"
       x="4.5"
       y="8.5"
       id="rect1314-3-3"
       style="color:#000000;fill:url(#radialGradient2900);fill-opacity:1;fill-rule:nonzero;stroke:url(#linearGradient2902);stroke-width:0.99999982;stroke-linecap:round;stroke-linejoin:round;stroke-miterlimit:4;stroke-opacity:1;stroke-dasharray:none;stroke-dashoffset:0;marker:none;visibility:visible;display:inline;overflow:visible;enable-background:accumulate" />
    <rect
       width="24.997868"
       height="19.997868"
       rx="0"
       ry="0"
       x="3.5010664"
       y="7.5010672"
       id="rect2221-3-8"
       style="opacity:0.4;fill:none;stroke:url(#linearGradient2897);stroke-width:1.00213289;stroke-linecap:round;stroke-linejoin:round;stroke-miterlimit:4;stroke-opacity:1;stroke-dasharray:none;stroke-dashoffset:0" />
    <rect
       width="26.996269"
       height="21.996269"
       rx="0.33208784"
       ry="0.33208781"
       x="2.5018659"
       y="6.5018659"
       id="rect2556-8-5"
       style="opacity:0.8;fill:none;stroke:url(#linearGradient2894);stroke-width:1.00373149;stroke-linecap:round;stroke-linejoin:round;stroke-miterlimit:4;stroke-opacity:1;stroke-dasharray:none;stroke-dashoffset:0" />
    <path
       d="m 16.999997,19.999997 0,-1 -5,0 0,1 5,0 z"
       id="path3651-7-2"
       style="opacity:0.4;fill:#000000;fill-opacity:1;stroke:none" />
    <path
       d="m 16.999997,19 0,-1 -5,0 0,1 5,0 z"
       id="path3651-2"
       style="fill:url(#linearGradient2890);fill-opacity:1;stroke:none" />
    <path
       d="M 7.7571425,19 6.5,17.727273 9.328571,15.5 6.5,13.272727 7.7571425,12 12,15.5 7.7571425,19 z"
       id="path3653-3-2"
       style="opacity:0.4;fill:#000000;fill-opacity:1;stroke:none" />
    <path
       d="M 7.7571425,17.999997 6.5,16.727269 9.328571,14.499997 6.5,12.272725 7.7571425,10.999997 12,14.499997 l -4.2428575,3.5 z"
       id="path3653-7"
       style="fill:url(#linearGradient2886);fill-opacity:1;stroke:none" />
    <path
       d="M 3.3333346,5.9999987 C 2.5968582,5.9999987 2,6.6297624 2,7.4068354 L 2,17.69685 c 0.00191,0.08658 0.037673,0.16843 0.099203,0.225717 0.061537,0.05729 0.1429909,0.08477 0.2246045,0.07575 L 29.752378,13.416044 C 29.893473,13.392568 29.998027,13.265274 30,13.114579 L 30,7.4068354 C 30,6.6297624 29.403142,5.9999987 28.666665,5.9999987 l -25.3333304,0 0,0 z"
       id="path3333-3-0"
       style="opacity:0.2;fill:url(#linearGradient2883);fill-opacity:1;fill-rule:evenodd;stroke:none" />
    <rect
       width="21"
       height="16"
       rx="0"
       ry="0"
       x="5.5"
       y="9.5"
       id="rect1314-3-3-9"
       style="opacity:0.1;color:#000000;fill:none;stroke:url(#linearGradient2880);stroke-width:0.99999994;stroke-linecap:round;stroke-linejoin:round;stroke-miterlimit:4;stroke-opacity:1;stroke-dasharray:none;stroke-dashoffset:0;marker:none;visibility:visible;display:inline;overflow:visible;enable-background:accumulate" />
  </g>
</svg>

<?xml version="1.0" encoding="UTF-8" standalone="no"?>
<!-- Created with Inkscape (http://www.inkscape.org/) -->
<svg id="svg3006" xmlns:rdf="http://www.w3.org/1999/02/22-rdf-syntax-ns#" xmlns="http://www.w3.org/2000/svg" height="32" width="32" version="1.1" xmlns:cc="http://creativecommons.org/ns#" xmlns:xlink="http://www.w3.org/1999/xlink" xmlns:dc="http://purl.org/dc/elements/1.1/">
 <defs id="defs3008">
  <linearGradient id="linearGradient2880" y2="44" gradientUnits="userSpaceOnUse" x2="16.143" gradientTransform="matrix(.53849 0 0 .41029 3.0762 7.6531)" y1="4" x1="16.143">
   <stop id="stop2225-6-4-7-2" style="stop-color:#fff" offset="0"/>
   <stop id="stop2229-2-5-5-8" style="stop-color:#fff;stop-opacity:0" offset="1"/>
  </linearGradient>
  <linearGradient id="linearGradient2883" y2="24.628" gradientUnits="userSpaceOnUse" x2="20.055" gradientTransform="matrix(.60952 0 0 .64313 1.3714 2.1613)" y1="15.298" x1="16.626">
   <stop id="stop2687-1-9-0-2" style="stop-color:#fff" offset="0"/>
   <stop id="stop2689-5-4-3-1" style="stop-color:#fff;stop-opacity:0" offset="1"/>
  </linearGradient>
  <linearGradient id="linearGradient2886" y2="16" xlink:href="#linearGradient3680-6" gradientUnits="userSpaceOnUse" x2="16" gradientTransform="matrix(.62857 0 0 .63636 .21429 .81818)" y1="27.045" x1="16"/>
  <linearGradient id="linearGradient3680-6">
   <stop id="stop3682-4" style="stop-color:#dcdcdc" offset="0"/>
   <stop id="stop3684-8" style="stop-color:#fff" offset="1"/>
  </linearGradient>
  <linearGradient id="linearGradient2890" y2="26" xlink:href="#linearGradient3680-6" gradientUnits="userSpaceOnUse" x2="20" gradientTransform="matrix(0.625 0 0 0.5 0.75 5)" y1="28" x1="20"/>
  <linearGradient id="linearGradient2894" y2="47.279" gradientUnits="userSpaceOnUse" x2="12.213" gradientTransform="matrix(.59939 0 0 .56350 1.6138 4.543)" y1="2.9165" x1="12.579">
   <stop id="stop2240-1-6-7-0" style="stop-color:#fff" offset="0"/>
   <stop id="stop2242-7-3-7-2" style="stop-color:#fff;stop-opacity:0" offset="1"/>
  </linearGradient>
  <linearGradient id="linearGradient2897" y2="33.296" gradientUnits="userSpaceOnUse" x2="23.071" gradientTransform="matrix(.63527 0 0 .65254 .75719 4.476)" y1="36.047" x1="23.071">
   <stop id="stop2225-6-4-7" style="stop-color:#fff" offset="0"/>
   <stop id="stop2229-2-5-5" style="stop-color:#fff;stop-opacity:0" offset="1"/>
  </linearGradient>
  <radialGradient id="radialGradient2900" gradientUnits="userSpaceOnUse" cy="8.4498" cx="7.4957" gradientTransform="matrix(0 1.0615 -1.8155 -4.4791e-8 31.34 .81149)" r="20">
   <stop id="stop2749" style="stop-color:#d78ec1" offset="0"/>
   <stop id="stop2751" style="stop-color:#c564be" offset=".26238"/>
   <stop id="stop2829" style="stop-color:#9d3ea4" offset=".66094"/>
   <stop id="stop2831" style="stop-color:#5e2c73" offset="1"/>
  </radialGradient>
  <linearGradient id="linearGradient2902" y2="3.7572" gradientUnits="userSpaceOnUse" x2="6.3007" gradientTransform="matrix(.58978 0 0 .46157 1.8453 6.4223)" y1="43.469" x1="6.3007">
   <stop id="stop2759" style="stop-color:#650d5c" offset="0"/>
   <stop id="stop2761" style="stop-color:#ad53a5" offset="1"/>
  </linearGradient>
  <linearGradient id="linearGradient2905" y2="43.865" gradientUnits="userSpaceOnUse" x2="24" gradientTransform="matrix(.64443 0 0 .64863 .53374 .63566)" y1="7.96" x1="24">
   <stop id="stop4324-9-7" style="stop-color:#f0f0f0" offset="0"/>
   <stop id="stop2860-4-4" style="stop-color:#d7d7d8" offset=".085525"/>
   <stop id="stop2862-5-9" style="stop-color:#b2b2b3" offset=".92166"/>
   <stop id="stop4326-1-1" style="stop-color:#979798" offset="1"/>
  </linearGradient>
  <linearGradient id="linearGradient2907" y2="2.8765" gradientUnits="userSpaceOnUse" x2="10.014" gradientTransform="matrix(.61701 0 0 .58602 1.1918 3.4284)" y1="44.96" x1="10.014">
   <stop id="stop4334-7-6" style="stop-color:#595959" offset="0"/>
   <stop id="stop4336-8-0" style="stop-color:#b3b3b3" offset="1"/>
  </linearGradient>
  <radialGradient id="radialGradient2910" xlink:href="#linearGradient5060-6-6-5" gradientUnits="userSpaceOnUse" cy="486.65" cx="605.71" gradientTransform="matrix(-.043725 0 0 .016471 31.795 21.294)" r="117.14"/>
  <linearGradient id="linearGradient5060-6-6-5">
   <stop id="stop5062-3-0-3" offset="0"/>
   <stop id="stop5064-1-4-9" style="stop-opacity:0" offset="1"/>
  </linearGradient>
  <radialGradient id="radialGradient2913" xlink:href="#linearGradient5060-6-6-5" gradientUnits="userSpaceOnUse" cy="486.65" cx="605.71" gradientTransform="matrix(.043725 0 0 .016471 .20519 21.294)" r="117.14"/>
  <linearGradient id="linearGradient3004" y2="609.51" gradientUnits="userSpaceOnUse" x2="302.86" gradientTransform="matrix(.043725 0 0 .016471 .19659 21.294)" y1="366.65" x1="302.86">
   <stop id="stop5050-5-6-4" style="stop-opacity:0" offset="0"/>
   <stop id="stop5056-9-0-1" offset=".5"/>
   <stop id="stop5052-6-9-5" style="stop-opacity:0" offset="1"/>
  </linearGradient>
 </defs>
 <metadata id="metadata3011">
  <rdf:RDF>
   <cc:Work rdf:about="">
    <dc:format>image/svg+xml</dc:format>
    <dc:type rdf:resource="http://purl.org/dc/dcmitype/StillImage"/>
    <dc:title/>
   </cc:Work>
  </rdf:RDF>
 </metadata>
 <g id="layer1">
  <rect id="rect2512-9-5" style="opacity:.40206;fill:url(#linearGradient3004)" height="4" width="21.113" y="27.333" x="5.4436"/>
  <path id="path2514-7-4" style="opacity:.40206;fill:url(#radialGradient2913)" d="m26.556 27.333v3.9998c2.252 0.008 5.444-0.896 5.444-2s-2.5128-1.9996-5.4436-1.9996z"/>
  <path id="path2516-8-9" style="opacity:.40206;fill:url(#radialGradient2910)" d="m5.4436 27.333v3.9998c-2.2518 0.008-5.4436-0.896-5.4436-2s2.5128-1.9996 5.4436-1.9996z"/>
  <rect id="rect2551-5-8" style="stroke-linejoin:round;fill-rule:evenodd;stroke:url(#linearGradient2907);stroke-linecap:round;stroke-width:1.0021;fill:url(#linearGradient2905)" rx=".99929" ry=".99929" height="23.998" width="28.998" y="5.5011" x="1.5011"/>
  <rect id="rect1314-3-3" style="stroke-linejoin:round;color:#000000;stroke:url(#linearGradient2902);stroke-linecap:round;fill:url(#radialGradient2900)" rx="0" ry="0" height="18" width="23" y="8.5" x="4.5"/>
  <rect id="rect2221-3-8" style="opacity:.4;stroke-linejoin:round;stroke:url(#linearGradient2897);stroke-linecap:round;stroke-width:1.0021;fill:none" rx="0" ry="0" height="19.998" width="24.998" y="7.5011" x="3.5011"/>
  <rect id="rect2556-8-5" style="opacity:.8;stroke-linejoin:round;stroke:url(#linearGradient2894);stroke-linecap:round;stroke-width:1.0037;fill:none" rx=".33209" ry=".33209" height="21.996" width="26.996" y="6.5019" x="2.5019"/>
  <path id="path3651-7-2" style="opacity:.4" d="m17 20v-1h-5v1h5z"/>
  <path id="path3651-2" style="fill:url(#linearGradient2890)" d="m17 19v-1h-5v1h5z"/>
  <path id="path3653-3-2" style="opacity:.4" d="m7.7571 19-1.2571-1.273 2.8286-2.227-2.8286-2.227 1.2571-1.273 4.2429 3.5-4.2429 3.5z"/>
  <path id="path3653-7" style="fill:url(#linearGradient2886)" d="m7.7571 18-1.2571-1.273 2.8286-2.227-2.8286-2.227 1.2571-1.273 4.2429 3.5l-4.2429 3.5z"/>
  <path id="path3333-3-0" style="opacity:.2;fill:url(#linearGradient2883);fill-rule:evenodd" d="m3.3333 6c-0.7364 0-1.3333 0.6298-1.3333 1.4068v10.29c0.00191 0.08658 0.037673 0.16843 0.099203 0.22572 0.061537 0.05729 0.14299 0.08477 0.2246 0.07575l27.428-4.582c0.141-0.023 0.246-0.151 0.248-0.301v-5.7082c0-0.777-0.597-1.4068-1.333-1.4068h-25.333z"/>
  <rect id="rect1314-3-3-9" style="opacity:.1;stroke-linejoin:round;color:#000000;stroke:url(#linearGradient2880);stroke-linecap:round;fill:none" rx="0" ry="0" height="16" width="21" y="9.5" x="5.5"/>
 </g>
</svg>
